X: 2
T: Paddy Fahey's
R: reel
M: 4/4
L: 1/8
K: Gmaj
DGGF GABd|g3 e fdcA|GFDE =FGAB|c/d/c Bd c=FAF|
DGGF GABd|g/a/g eg fdcA|GFDE =FGAg|fdcA G4||
g2 gf gbag|fd d2 acgf|dg g2 gbag|fdaf g2 ga|
b/a/g af gfde|fgag fdcA|G2 GF GABd|g2 eg fdcA||
DGGF GABd|g3 e fdcA|GFDE =FGAB|c/d/c Bd c=FAF|
DGGF GABd|g/a/g eg fdcA|GFDE =FGAg|fdcA G4||
g2 gf gbag|fd d2 acgf|dg g2 gbag|fdaf g2 ga|
b/a/g af gfde|fgag fdcA|G2 GF GABd|g2 eg fdcA||

composer: Paddy Fahey
